icons/home.svg

<svg width="14" height="14" viewBox="0 0 14 14" fill="none" xmlns="http://www.w3.org/2000/svg">
<path d="M3 6V10.5C3 11.0523 3.44772 11.5 4 11.5H4.5C5.05228 11.5 5.5 11.0523 5.5 10.5V8.5C5.5 7.94772 5.94772 7.5 6.5 7.5H7.5C8.05228 7.5 8.5 7.94772 8.5 8.5V10.5C8.5 11.0523 8.94772 11.5 9.5 11.5H10C10.5523 11.5 11 11.0523 11 10.5V6C11 5.68524 10.8518 5.38885 10.6 5.2L7.6 2.95C7.24444 2.68333 6.75556 2.68333 6.4 2.95L3.4 5.2C3.14819 5.38885 3 5.68524 3 6Z" stroke="red" stroke-linecap="round"/>
</svg>

<svg xmlns="http://www.w3.org/2000/svg" width="14" height="14" fill="none" viewBox="0 0 14 14"><path stroke="red" stroke-linecap="round" d="M3 6v4.5a1 1 0 0 0 1 1h.5a1 1 0 0 0 1-1v-2a1 1 0 0 1 1-1h1a1 1 0 0 1 1 1v2a1 1 0 0 0 1 1h.5a1 1 0 0 0 1-1V6a1 1 0 0 0-.4-.8l-3-2.25a1 1 0 0 0-1.2 0l-3 2.25A1 1 0 0 0 3 6Z"/></svg>
